X: 196
T: SLIP JIG: Snowy Path
C: C: Mark Kelly; S: Altan
C: Set Leaders: Olya, Tania, Anton
Z: Anton Zille ed., Oleg Naumov arr.; Shawn Cassady at The Session
N: https://thesession.org/members/26966/sets/76538
R: Slip Jig
M: 9/8
L: 1/8
Q: 3/8=114
K: Dmaj
"D"F2A B2F A2F|"G"G2B d2e dBG|"D"F2A B2F A2F|"A"E2D E2F GFE|
"D"F2A B2F A2F|"G"G2B d2e dBG|"Bm"F2A B2F A2F|"A"E2D E2F GAB||
"F#m"c3 c2e d2c|"G"B2G B2c d2e|"Bm"f3 f2e d2B|"D"A2G F2G A2B|
"F#m"c3 c2e d2c|"G"B2G B2c d2e|"D"d2A B2F A2F|"A"E2D E2F GFE||

